Numix/16/actions/tag-new.svg

<?xml version="1.0" encoding="UTF-8" standalone="no"?>
<svg
   xmlns:dc="http://purl.org/dc/elements/1.1/"
   xmlns:cc="http://creativecommons.org/ns#"
   xmlns:rdf="http://www.w3.org/1999/02/22-rdf-syntax-ns#"
   xmlns:svg="http://www.w3.org/2000/svg"
   xmlns="http://www.w3.org/2000/svg"
   xmlns:sodipodi="http://sodipodi.sourceforge.net/DTD/sodipodi-0.dtd"
   xmlns:inkscape="http://www.inkscape.org/namespaces/inkscape"
   width="16"
   height="16"
   viewBox="0 0 16 16"
   id="svg2"
   version="1.1"
   inkscape:version="0.91 r"
   sodipodi:docname="tag-new.svg">
  <metadata
     id="metadata12">
    <rdf:RDF>
      <cc:Work
         rdf:about="">
        <dc:format>image/svg+xml</dc:format>
        <dc:type
           rdf:resource="http://purl.org/dc/dcmitype/StillImage" />
        <dc:title />
      </cc:Work>
    </rdf:RDF>
  </metadata>
  <defs
     id="defs10" />
  <sodipodi:namedview
     pagecolor="#ffffff"
     bordercolor="#666666"
     borderopacity="1"
     objecttolerance="10"
     gridtolerance="10"
     guidetolerance="10"
     inkscape:pageopacity="0"
     inkscape:pageshadow="2"
     inkscape:window-width="1920"
     inkscape:window-height="1056"
     id="namedview8"
     showgrid="true"
     inkscape:zoom="32"
     inkscape:cx="10.262943"
     inkscape:cy="8"
     inkscape:window-x="0"
     inkscape:window-y="24"
     inkscape:window-maximized="1"
     inkscape:current-layer="svg2">
    <inkscape:grid
       type="xygrid"
       id="grid4146" />
  </sodipodi:namedview>
  <path
     style="opacity:1;fill:#e6e1a2;fill-opacity:1;stroke:#a3a093;stroke-width:0.49999997;stroke-linecap:round;stroke-linejoin:round;stroke-miterlimit:4;stroke-dasharray:none;stroke-opacity:1"
     d="M 6.999995,2.2500016 0.24999027,9.5192372 6.4807638,15.75001 13.75,8.480775 l 0,-6.2307734 -6.750005,0 z M 10.115382,4.326926 A 1.5576934,1.5576934 0 0 1 11.673074,5.8846194 1.5576934,1.5576934 0 0 1 10.115382,7.4423128 1.5576934,1.5576934 0 0 1 8.5576883,5.8846194 1.5576934,1.5576934 0 0 1 10.115382,4.326926 Z"
     id="rect4170"
     inkscape:connector-curvature="0" />
  <path
     style="fill:#859900"
     d="m 16,10 -3,0 0,-3 -3,0 0,3 -3,0 0,3 3,0 0,3 3,0 0,-3 3,0 z"
     id="path6" />
</svg>

<svg xmlns="http://www.w3.org/2000/svg" viewBox="0 0 16 16">
 <path d="m 7 2.25 -6.75 7.269 6.231 6.231 7.269 -7.269 l 0 -6.231 -6.75 0 z m 3.115 2.077 a 1.558 1.558 0 0 1 1.558 1.558 1.558 1.558 0 0 1 -1.558 1.558 1.558 1.558 0 0 1 -1.558 -1.558 1.558 1.558 0 0 1 1.558 -1.558" style="stroke-dasharray:none;stroke-opacity:1;fill:#e6e1a2;opacity:1;stroke-miterlimit:4;fill-opacity:1;stroke:#a3a093;stroke-linecap:round;stroke-linejoin:round;stroke-width:0.5"/>
 <path d="m 16 10 -3 0 0 -3 -3 0 0 3 -3 0 0 3 3 0 0 3 3 0 0 -3 3 0 z" style="fill:#859900"/>
</svg>
